X: 30
M:2/4
L:1/8
K:G
dedc | BGGB | cAFA | c2 :: dg |
bgdg | Bgdg | bgfa | g2ga |
bgdg | BgdB | cAFA | c2dg |
bgdg | Bgdg | bgfa | gfga |
bgaf | gedB | cAFA | c2 :|


